u/stations/jre/img/04D.svg

<svg xmlns="http://www.w3.org/2000/svg" xml:space="preserve" width="70" height="30"><path fill="#de0615" d="M30 0h10v30H30Z" style="stroke-width:1.41421;paint-order:fill markers stroke"/><path fill="#00a7e3" d="M40 0v5.03c0 5.42 2.34 7.44 4.87 8.7s5.13 1.3 5.13 1.3h20v5H50s-3.65.035-7.37-1.83C38.91 16.34 35 12.11 35 5V0Z" style="fill:#05ac84;fill-opacity:1;paint-order:fill markers stroke"/></svg>

<?xml version="1.0" encoding="UTF-8" standalone="no"?>
<svg
   xml:space="preserve"
   width="70"
   height="30"
   version="1.1"
   id="svg2"
   sodipodi:docname="04D.svg"
   inkscape:version="1.4 (e7c3feb1, 2024-10-09)"
   xmlns:inkscape="http://www.inkscape.org/namespaces/inkscape"
   xmlns:sodipodi="http://sodipodi.sourceforge.net/DTD/sodipodi-0.dtd"
   xmlns="http://www.w3.org/2000/svg"
   xmlns:svg="http://www.w3.org/2000/svg"><defs
     id="defs2"><clipPath
       id="b"><path
         d="m1 0.625h14v18.8h-14z"
         id="path1-9" /></clipPath><clipPath
       id="c"><path
         d="m16 0.625h18v18.8h-18z"
         id="path2-0" /></clipPath><clipPath
       id="a"><path
         d="M0 0h35v20H0z"
         id="path3" /></clipPath><clipPath
       id="e"><path
         d="m3 0.762h17v26.9h-17z"
         id="path4" /></clipPath><clipPath
       id="f"><path
         d="m23 0.762h17v26.9h-17z"
         id="path5" /></clipPath><clipPath
       id="d"><path
         d="M0 0h43v28H0z"
         id="path6" /></clipPath><clipPath
       id="g"><path
         d="M0 0h75v75H0z"
         id="path7" /></clipPath><g
       id="h"
       clip-path="url(#a)" /><g
       id="i"
       clip-path="url(#d)" /></defs><sodipodi:namedview
     id="namedview2"
     pagecolor="#ffffff"
     bordercolor="#000000"
     borderopacity="0.25"
     inkscape:showpageshadow="2"
     inkscape:pageopacity="0.0"
     inkscape:pagecheckerboard="0"
     inkscape:deskcolor="#d1d1d1"
     inkscape:zoom="2.525089"
     inkscape:cx="15.445"
     inkscape:cy="10.8907"
     inkscape:window-width="1432"
     inkscape:window-height="398"
     inkscape:window-x="0"
     inkscape:window-y="25"
     inkscape:window-maximized="0"
     inkscape:current-layer="svg2" /><path
     fill="#de0615"
     d="M 30,0 H 40 V 30 H 30 Z"
     style="stroke-width:1.41421;paint-order:fill markers stroke"
     id="path2" /><path
     d="M 40,0 V 5.03 C 40,10.45 42.34,12.47 44.87,13.73 47.4,14.99 50,15.03 50,15.03 L 70,15.03 V 20.03 H 50 C 50,20.03 46.35,20.065 42.63,18.2 38.91,16.34 35,12.11 35,5 V 0 Z"
     fill="#00a7e3"
     style="fill:#05ac84;fill-opacity:1;paint-order:fill markers stroke"
     id="path8"
     sodipodi:nodetypes="csscccccscc" /></svg>
